src/images_karasa_jaga_svg/cmd/sc_basicshapes.ellipse-pie.svg

<svg height="16" viewBox="0 0 4.2333333 4.2333335" width="16" xmlns="http://www.w3.org/2000/svg" xmlns:xlink="http://www.w3.org/1999/xlink"><linearGradient id="a" gradientUnits="userSpaceOnUse" x1="63.999996" x2="63.999996" y1="121.89668" y2="6.103257"><stop offset="0" stop-color="#fff"/><stop offset=".50643778" stop-color="#fff"/><stop offset=".82296139" stop-color="#f1f1f1"/><stop offset=".90625" stop-color="#eaeaea"/><stop offset="1" stop-color="#dfdfdf"/></linearGradient><linearGradient id="b" gradientUnits="userSpaceOnUse" x1="63.999996" x2="63.999996" y1="121.89668" y2="6.103257"><stop offset="0" stop-color="#7c9fcf"/><stop offset=".5" stop-color="#7c9ece"/><stop offset="1" stop-color="#7b9dcf"/></linearGradient><path d="m64.001953 16.001953c-16.156588.000189-32.269922 4.650521-44.248047 13.207031-11.9781242 8.556473-19.74726193 21.387753-19.7460935 34.791016-.0011507 13.403225 7.7679715 26.23259 19.7460935 34.789062 11.978122 8.556468 28.09147 13.206838 44.248047 13.207028 16.156577-.00019 32.267974-4.65056 44.246097-13.207028 11.97812-8.556472 19.74724-21.385837 19.74609-34.789062.00024-2.700622-.3281-5.376121-.92969-8h-55.06445v-39.605469c-2.65367-.251495-5.323396-.392547-7.998047-.392578z" fill="url(#b)" transform="matrix(.03307292 0 0 .03307292 -.000032 .000032)"/><path d="m64 24a56.000003 39.999992 0 0 0 -56 40 56.000003 39.999992 0 0 0 56 40 56.000003 39.999992 0 0 0 56-40h-56z" fill="url(#a)" transform="matrix(.03307292 0 0 .03307292 -.000032 .000032)"/></svg>

<?xml version="1.0" encoding="UTF-8" standalone="no"?>
<!-- Created with Inkscape (http://www.inkscape.org/) -->

<svg
   xmlns:dc="http://purl.org/dc/elements/1.1/"
   xmlns:cc="http://creativecommons.org/ns#"
   xmlns:rdf="http://www.w3.org/1999/02/22-rdf-syntax-ns#"
   xmlns:svg="http://www.w3.org/2000/svg"
   xmlns="http://www.w3.org/2000/svg"
   xmlns:xlink="http://www.w3.org/1999/xlink"
   xmlns:sodipodi="http://sodipodi.sourceforge.net/DTD/sodipodi-0.dtd"
   xmlns:inkscape="http://www.inkscape.org/namespaces/inkscape"
   width="128"
   height="128"
   viewBox="0 0 33.866666 33.866668"
   version="1.1"
   id="svg8"
   inkscape:version="0.92.3 (unknown)"
   sodipodi:docname="sc_basicshapes.ellipse-pie.svg"
   inkscape:export-filename="/home/rizmut/Dokumen/Rizmut/Github/libreoffice-style-karasa-jaga/build/images_karasa_jaga/cmd/sc_basicshapes.ellipse-pie.png"
   inkscape:export-xdpi="12"
   inkscape:export-ydpi="12">
  <defs
     id="defs2">
    <linearGradient
       id="linearGradient7422">
      <stop
         style="stop-color:#7c9fcf;stop-opacity:1"
         offset="0"
         id="stop7424" />
      <stop
         id="stop5348"
         offset="0.5"
         style="stop-color:#7c9ece;stop-opacity:1" />
      <stop
         id="stop7426"
         offset="1"
         style="stop-color:#7b9dcf;stop-opacity:1" />
    </linearGradient>
    <linearGradient
       inkscape:collect="always"
       xlink:href="#linearGradient3369"
       id="linearGradient861"
       x1="64"
       y1="128"
       x2="64"
       y2="0"
       gradientUnits="userSpaceOnUse"
       gradientTransform="matrix(0.90463616,0,0,0.90463616,6.1032816,6.1032567)" />
    <linearGradient
       id="linearGradient3369">
      <stop
         id="stop3372"
         offset="0"
         style="stop-color:#ffffff;stop-opacity:1;" />
      <stop
         style="stop-color:#ffffff;stop-opacity:1;"
         offset="0.50643778"
         id="stop3374" />
      <stop
         style="stop-color:#f1f1f1;stop-opacity:1;"
         offset="0.82296139"
         id="stop3376" />
      <stop
         id="stop3378"
         offset="0.90625"
         style="stop-color:#eaeaea;stop-opacity:1;" />
      <stop
         id="stop3384"
         offset="1"
         style="stop-color:#dfdfdf;stop-opacity:1;" />
    </linearGradient>
    <linearGradient
       inkscape:collect="always"
       xlink:href="#linearGradient7422"
       id="linearGradient829"
       gradientUnits="userSpaceOnUse"
       gradientTransform="matrix(0.90463616,0,0,0.90463616,6.1032816,6.1032567)"
       x1="64"
       y1="128"
       x2="64"
       y2="0" />
  </defs>
  <sodipodi:namedview
     id="base"
     pagecolor="#ffffff"
     bordercolor="#666666"
     borderopacity="1.0"
     inkscape:pageopacity="0.0"
     inkscape:pageshadow="2"
     inkscape:zoom="1.979899"
     inkscape:cx="41.115142"
     inkscape:cy="94.424979"
     inkscape:document-units="mm"
     inkscape:current-layer="layer1"
     showgrid="true"
     units="px"
     inkscape:window-width="1366"
     inkscape:window-height="706"
     inkscape:window-x="0"
     inkscape:window-y="0"
     inkscape:window-maximized="1">
    <inkscape:grid
       type="xygrid"
       id="grid1421"
       spacingx="2.1166667"
       spacingy="2.1166667"
       empspacing="2" />
  </sodipodi:namedview>
  <metadata
     id="metadata5">
    <rdf:RDF>
      <cc:Work
         rdf:about="">
        <dc:format>image/svg+xml</dc:format>
        <dc:type
           rdf:resource="http://purl.org/dc/dcmitype/StillImage" />
        <dc:title></dc:title>
      </cc:Work>
    </rdf:RDF>
  </metadata>
  <g
     inkscape:label="Layer 1"
     inkscape:groupmode="layer"
     id="layer1"
     transform="translate(0,-263.13332)">
    <path
       style="fill:url(#linearGradient829);fill-opacity:1;stroke:none;stroke-width:4.39464855;stroke-linecap:round;stroke-linejoin:bevel;stroke-opacity:0.73039198"
       d="M 64.001953 16.001953 C 47.845365 16.002142 31.732031 20.652474 19.753906 29.208984 C 7.7757818 37.765457 0.0066440696 50.596737 0.0078125 64 C 0.0066618005 77.403225 7.775784 90.23259 19.753906 98.789062 C 31.732028 107.34553 47.845376 111.9959 64.001953 111.99609 C 80.15853 111.9959 96.269927 107.34553 108.24805 98.789062 C 120.22617 90.23259 127.99529 77.403225 127.99414 64 C 127.99438 61.299378 127.66604 58.623879 127.06445 56 L 72 56 L 72 16.394531 C 69.34633 16.143036 66.676604 16.001984 64.001953 16.001953 z "
       transform="matrix(0.26458333,0,0,0.26458333,0,263.13332)"
       id="ellipse827" />
    <path
       style="fill:url(#linearGradient861);fill-opacity:1;stroke:none;stroke-width:4.39464855;stroke-linecap:round;stroke-linejoin:bevel;stroke-opacity:0.73039198"
       d="M 64 24 A 56.000003 39.999992 0 0 0 8 64 A 56.000003 39.999992 0 0 0 64 104 A 56.000003 39.999992 0 0 0 120 64 L 64 64 L 64 24 z "
       transform="matrix(0.26458333,0,0,0.26458333,0,263.13332)"
       id="circle2" />
  </g>
</svg>
